X: 5
T: Down The Broom
R: reel
M: 4/4
L: 1/8
K: Ador
EAAG A2 Bd|eged egga|gedB GABd|edBA GEDG|A2AG A2Bd|eged egga|gedB GABd|e2dB A4:|a2ea a2ea|a2ba gede|g2dg g2dg|g2ae ged2|agea a2ea|a2ba gede|gedB GABd|e2 dBA4:|


Tune 514	Setting 514

